src/images/svg/blog/pinterest.svg

<svg width="24" height="24" fill="none" xmlns="http://www.w3.org/2000/svg"><path d="M0 12c0 5.123 3.211 9.497 7.73 11.218-.11-.937-.227-2.482.025-3.566.217-.932 1.401-5.938 1.401-5.938s-.357-.715-.357-1.774c0-1.66.962-2.9 2.161-2.9 1.02 0 1.512.765 1.512 1.682 0 1.025-.653 2.557-.99 3.978-.281 1.189.597 2.159 1.769 2.159 2.123 0 3.756-2.239 3.756-5.471 0-2.861-2.056-4.86-4.991-4.86-3.398 0-5.393 2.549-5.393 5.184 0 1.027.395 2.127.889 2.726a.36.36 0 0 1 .083.343c-.091.378-.293 1.189-.332 1.355-.053.218-.173.265-.4.159-1.492-.694-2.424-2.875-2.424-4.627 0-3.769 2.737-7.229 7.892-7.229 4.144 0 7.365 2.953 7.365 6.899 0 4.117-2.595 7.431-6.199 7.431-1.211 0-2.348-.63-2.738-1.373 0 0-.599 2.282-.744 2.84-.282 1.084-1.064 2.456-1.549 3.235C9.584 23.815 10.77 24 12 24c6.627 0 12-5.373 12-12S18.627 0 12 0 0 5.373 0 12z" fill="#333"/></svg>

<svg width="24" height="24" viewBox="0 0 24 24" fill="none" xmlns="http://www.w3.org/2000/svg">
<path d="M0 12C0 17.123 3.211 21.497 7.73 23.218C7.62 22.281 7.503 20.736 7.755 19.652C7.972 18.72 9.156 13.714 9.156 13.714C9.156 13.714 8.799 12.999 8.799 11.94C8.799 10.28 9.761 9.04 10.96 9.04C11.98 9.04 12.472 9.805 12.472 10.722C12.472 11.747 11.819 13.279 11.482 14.7C11.201 15.889 12.079 16.859 13.251 16.859C15.374 16.859 17.007 14.62 17.007 11.388C17.007 8.527 14.951 6.528 12.016 6.528C8.618 6.528 6.623 9.077 6.623 11.712C6.623 12.739 7.018 13.839 7.512 14.438C7.55412 14.4832 7.58387 14.5386 7.59841 14.5986C7.61295 14.6587 7.61177 14.7215 7.595 14.781C7.504 15.159 7.302 15.97 7.263 16.136C7.21 16.354 7.09 16.401 6.863 16.295C5.371 15.601 4.439 13.42 4.439 11.668C4.439 7.899 7.176 4.439 12.331 4.439C16.475 4.439 19.696 7.392 19.696 11.338C19.696 15.455 17.101 18.769 13.497 18.769C12.286 18.769 11.149 18.139 10.759 17.396C10.759 17.396 10.16 19.678 10.015 20.236C9.733 21.32 8.951 22.692 8.466 23.471C9.584 23.815 10.77 24 12 24C18.627 24 24 18.627 24 12C24 5.373 18.627 0 12 0C5.373 0 0 5.373 0 12Z" fill="#333333"/>
</svg>
